X:1
T:Title
L:1/8
Q:1/4=110
M:4/4
K:C
V:1 treble nm="Church Organ, Staff"
V:1
 G2 G2- G/ z/ G c2- | ccdc BA G2- | GA G2- G/ z/ A G2- | GA G2- G/ z/ A G2- | GG c2- c/ z/ B A2 | %5
w: By~C.~F.~Roper * * * *|||||
 A2 d2- d/ z/ B G2 | A2 B2 c2 B2 | A2 A2- A/ z/ G G2- | GG G2- G/ z/ A G2- | GAGB cd e2- | %10
w: |||||
 eedc BA G2- | GA G2- G/ z/ A G2 | z2 c2 cB A2 | A2 d2- d/ z/ c B2- | BB c2 c2 c2- | cG A2 B2 c2 |] %16
w: ||||||

